!!!COM: Palestrina, Giovanni Perluigi da
!!!OPR: Missa O sacrum convivium
!!!OMD: Credo
!!!OTL: Et in Spiritum
**kern	**kern	**kern	**kern	**kern
*Ibass	*Itenor	*Itenor	*Icalto	*Icant
!Bassus	!Tenor 2	!Tenor 1	!Altus	!Cantus
*clefF4	*clefGv2	*clefGv2	*clefG2	*clefG2
*k[b-]	*k[b-]	*k[b-]	*k[b-]	*k[b-]
*F:ion	*F:ion	*F:ion	*F:ion	*F:ion
*M3/2	*M3/2	*M3/2	*M3/2	*M3/2
=134	=134	=134	=134	=134
1F	1r	1f	1a	1cc
2G	2r	2d	2g	2b-
=135	=135	=135	=135	=135
2.A	1r	2.c	2.e	2.a
4A	.	4c	4e	4a
2F	2r	2c	2f	2a
=136	=136	=136	=136	=136
1B-	1r	2r	1f	1dd
.	.	2B-	.	.
2A	2r	2c	2f	2cc
=137	=137	=137	=137	=137
2.G	1r	2.d	2.g	2.b-
4G	.	4d	4g	4b-
2F	2r	2f	2c	2a
=138	=138	=138	=138	=138
2.C	2.c	2.e	2.g	2.cc
4C	4c	4e	4g	4cc
2F	2A	2f	2a	2cc
=139	=139	=139	=139	=139
2C	2c	2e	2g	2cc
1G	1d	2d	1g	1b
.	.	2g	.	.
=140	=140	=140	=140	=140
2C	2c	2e	2g	2cc
2r	2c	2g	2e	2cc
2r	2B	2g	2d	2dd
=141	=141	=141	=141	=141
1r	1c	1g	2c	1ee
.	.	.	1cc	.
2r	2A	2a	.	2cc
=142	=142	=142	=142	=142
1r	2.d	2f	2.a	2.ff
.	.	2d	.	.
.	4d	.	4a	4ff
2r	2c	2e	2a	2ee
=143	=143	=143	=143	=143
1r	1B-	1f	1b-	1dd
2r	2F	2f	2a	2cc
=144	=144	=144	=144	=144
1r	1G	1d	1g	1b
2r	2F	2f	2a	2cc
=145	=145	=145	=145	=145
1F	2r	2r	2r	1r
.	2c	2f	2a	.
2D	2d	2f	2b-	2r
=146	=146	=146	=146	=146
2C	2e	2g	2cc	1r
2C	2e	2g	2cc	.
2F	2c	2f	2a	2r
=147	=147	=147	=147	=147
2.BB-	2.f	2.d	2.b-	1r
4BB-	4f	4d	4b-	.
2C	2e	2c	2g	2r
=148	=148	=148	=148	=148
2.G	2.d	2.B	2.g	2.dd
4G	4d	4B	4g	4dd
2G	2d	2B	2g	2dd
=149	=149	=149	=149	=149
2C	2c	2c	2g	2ee
1G	1B	1d	1g	1dd
=150	=150	=150	=150	=150
2C	2c	2e	2g	2cc
2r	2r	2r	2r	2r
2F	2A	2f	2f	2cc
=151	=151	=151	=151	=151
2.BB-	2.B-	2.d	2.f	2.b-
4BB-	4B-	4d	4f	4b-
2F	2c	2c	2f	2a
=152	=152	=152	=152	=152
2BB-	2d	2B-	2f	2b-
1F	1c	1A	1f	1cc
=153	=153	=153	=153	=153
2BB-	2B-	2B-	2f	2dd
2B-	2B-	2r	2f	2dd
2A	2c	2r	2f	2cc
=154	=154	=154	=154	=154
1G	1d	2r	1g	1b
.	.	2d	.	.
2C	2e	2c	2g	2cc
=155	=155	=155	=155	=155
1G	2d	1B-	1g	1.dd
.	2.d	.	.	.
2F#	.	2A	2a	.
.	4c	.	.	.
=156	=156	=156	=156	=156
2.G	4B-	2G	2.b-	1dd
.	4A	.	.	.
.	1G	2B-	.	.
4F	.	.	4a	.
2E	.	[2c	2g	[2cc
=157	=157	=157	=157	=157
2F	2A	2c]	2.f	2cc]
1C	1G	1c	.	1cc
.	.	.	8e	.
.	.	.	8d	.
.	.	.	2e	.
*-	*-	*-	*-	*-
!!!CDT: 1525/^1526/-1594/2/2
!!!OCY: Italia
!!!AGN: Mass (Parody)
!!!AST: renaissance, vocal
!!!ASW: Motet (Morales)
!!!PWK: Masses, Book 8
!!!RNB: Cadence finals: C
!!!YOR: Le Opere Complete, v. 24, p. 227
!!!YOO: Rome, Italy: Fratelli Scalera
!!!END: 1992//
!!!EED: John Miller
!!!YEC: Copyright 2000, John Miller
!!!YEN: United States of America
!!!YEM: Rights to all derivative electronic formats reserved.
!!!YEM: Refer to licensing agreement for further details.
!!!YEM: This file must be accompanied by the licensing agreement.
!!!YEM: A copy of the licensing agreement may be found at http://www.music-cog.ohio-state.edu/HumdrumDatabases/Palestrina/license.txt
!!!EMD: converted to Humdrum by Bret Aarden
